wp-content/uploads/stamp03.svg

<?xml version="1.0" encoding="UTF-8"?> <svg xmlns="http://www.w3.org/2000/svg" width="216" height="23" viewBox="0 0 216 23" fill="none"><rect width="216" height="23" rx="5" fill="#032538"></rect><path d="M11.552 14.92V13.576L17.76 11.496V11.304L11.552 9.224V7.88L18.24 10.184V12.616L11.552 14.92ZM34.5538 15.976C35.0124 15.976 35.4018 15.9013 35.7218 15.752C36.0524 15.592 36.3191 15.384 36.5218 15.128C36.7351 14.8613 36.8898 14.5627 36.9858 14.232C37.0924 13.8907 37.1458 13.5333 37.1458 13.16V12.968H38.4898V13.16C38.4898 13.7253 38.4044 14.2587 38.2338 14.76C38.0631 15.2507 37.8124 15.6827 37.4818 16.056C37.1511 16.4187 36.7404 16.7067 36.2498 16.92C35.7591 17.1227 35.1938 17.224 34.5538 17.224C33.3164 17.224 32.3511 16.8347 31.6578 16.056C30.9644 15.2773 30.6178 14.1413 30.6178 12.648V10.152C30.6178 8.70133 30.9644 7.576 31.6578 6.776C32.3511 5.976 33.3164 5.576 34.5538 5.576C35.1938 5.576 35.7591 5.68267 36.2498 5.896C36.7404 6.09867 37.1511 6.38667 37.4818 6.76C37.8124 7.12267 38.0631 7.55467 38.2338 8.056C38.4044 8.54667 38.4898 9.07467 38.4898 9.64V9.832H37.1458V9.64C37.1351 9.27733 37.0764 8.92533 36.9698 8.584C36.8738 8.24267 36.7191 7.944 36.5058 7.688C36.3031 7.42133 36.0418 7.21333 35.7218 7.064C35.4018 6.904 35.0124 6.824 34.5538 6.824C33.6898 6.824 33.0391 7.13867 32.6018 7.768C32.1751 8.39733 31.9618 9.224 31.9618 10.248V12.552C31.9618 13.6507 32.1751 14.4987 32.6018 15.096C33.0391 15.6827 33.6898 15.976 34.5538 15.976ZM40.3506 10.152C40.3506 8.70133 40.6973 7.576 41.3906 6.776C42.084 5.976 43.0493 5.576 44.2866 5.576C45.524 5.576 46.4893 5.976 47.1826 6.776C47.876 7.576 48.2226 8.70133 48.2226 10.152V12.648C48.2226 14.1413 47.876 15.2773 47.1826 16.056C46.4893 16.8347 45.524 17.224 44.2866 17.224C43.0493 17.224 42.084 16.8347 41.3906 16.056C40.6973 15.2773 40.3506 14.1413 40.3506 12.648V10.152ZM44.2866 15.976C45.1506 15.976 45.796 15.6827 46.2226 15.096C46.66 14.4987 46.8786 13.6507 46.8786 12.552V10.248C46.8786 9.224 46.66 8.39733 46.2226 7.768C45.796 7.13867 45.1506 6.824 44.2866 6.824C43.4226 6.824 42.772 7.13867 42.3346 7.768C41.908 8.39733 41.6946 9.224 41.6946 10.248V12.552C41.6946 13.6507 41.908 14.4987 42.3346 15.096C42.772 15.6827 43.4226 15.976 44.2866 15.976ZM56.2755 16.424H56.4675V5.8H57.8115V17H55.1235L51.8915 6.376H51.6995V17H50.3555V5.8H53.0435L56.2755 16.424ZM59.4164 5.8H60.8564L63.7844 16.424H63.9764L66.9044 5.8H68.3444L65.1764 17H62.5844L59.4164 5.8ZM70.2853 5.8H77.0693V7.048H71.6293V10.76H76.9733V12.008H71.6293V15.752H77.1653V17H70.2853V5.8ZM86.9781 17H85.6341V13.256C85.6341 12.9787 85.5701 12.7653 85.4421 12.616C85.3141 12.4667 85.0901 12.392 84.7701 12.392H81.2821V17H79.9381V5.8H83.9381C84.5141 5.8 85.0155 5.88533 85.4421 6.056C85.8688 6.216 86.2208 6.43467 86.4981 6.712C86.7861 6.98933 86.9995 7.31467 87.1381 7.688C87.2875 8.05067 87.3621 8.43467 87.3621 8.84V9.32C87.3621 9.736 87.2448 10.152 87.0101 10.568C86.7861 10.984 86.4341 11.304 85.9541 11.528V11.72C86.2741 11.7733 86.5248 11.9013 86.7061 12.104C86.8875 12.3067 86.9781 12.5947 86.9781 12.968V17ZM81.2821 11.144H83.7781C84.5355 11.144 85.0955 10.984 85.4581 10.664C85.8315 10.3333 86.0181 9.85333 86.0181 9.224V8.936C86.0181 8.37067 85.8315 7.91733 85.4581 7.576C85.0955 7.224 84.5355 7.048 83.7781 7.048H81.2821V11.144ZM95.911 9.032C95.911 8.66933 95.8363 8.34933 95.687 8.072C95.5483 7.79467 95.3563 7.56533 95.111 7.384C94.8657 7.20267 94.583 7.064 94.263 6.968C93.943 6.872 93.607 6.824 93.255 6.824C92.9457 6.824 92.6523 6.86667 92.375 6.952C92.0977 7.02667 91.847 7.13867 91.623 7.288C91.4097 7.43733 91.239 7.624 91.111 7.848C90.983 8.06133 90.919 8.312 90.919 8.6V8.696C90.919 9.00533 90.983 9.272 91.111 9.496C91.239 9.70933 91.4257 9.896 91.671 10.056C91.927 10.2053 92.2417 10.3333 92.615 10.44C92.9883 10.536 93.4257 10.6213 93.927 10.696C95.1003 10.8773 95.9643 11.224 96.519 11.736C97.0737 12.2373 97.351 12.9147 97.351 13.768V13.96C97.351 14.44 97.2657 14.8827 97.095 15.288C96.935 15.6827 96.6897 16.024 96.359 16.312C96.039 16.6 95.639 16.824 95.159 16.984C94.679 17.144 94.1243 17.224 93.495 17.224C92.7803 17.224 92.1457 17.1227 91.591 16.92C91.047 16.7067 90.5883 16.4187 90.215 16.056C89.8523 15.6827 89.575 15.2507 89.383 14.76C89.191 14.2587 89.095 13.7147 89.095 13.128V12.648H90.439V13.032C90.439 14.0133 90.7057 14.7493 91.239 15.24C91.783 15.7307 92.535 15.976 93.495 15.976C94.327 15.976 94.951 15.7947 95.367 15.432C95.7937 15.0587 96.007 14.568 96.007 13.96V13.864C96.007 13.2773 95.7883 12.8293 95.351 12.52C94.9243 12.2107 94.2257 11.9867 93.255 11.848C92.6897 11.7733 92.1777 11.6613 91.719 11.512C91.271 11.352 90.887 11.1493 90.567 10.904C90.247 10.648 90.0017 10.344 89.831 9.992C89.6603 9.64 89.575 9.224 89.575 8.744V8.552C89.575 8.11467 89.6657 7.71467 89.847 7.352C90.0283 6.98933 90.279 6.67467 90.599 6.408C90.9297 6.14133 91.319 5.93867 91.767 5.8C92.2257 5.65067 92.727 5.576 93.271 5.576C93.9003 5.576 94.4603 5.66667 94.951 5.848C95.4523 6.02933 95.8737 6.27467 96.215 6.584C96.5563 6.88267 96.8123 7.24 96.983 7.656C97.1643 8.06133 97.255 8.488 97.255 8.936V9.608H95.911V9.032ZM99.5159 5.8H106.62V7.048H103.74V15.752H106.62V17H99.5159V15.752H102.396V7.048H99.5159V5.8ZM108.929 10.152C108.929 8.70133 109.275 7.576 109.969 6.776C110.662 5.976 111.627 5.576 112.865 5.576C114.102 5.576 115.067 5.976 115.761 6.776C116.454 7.576 116.801 8.70133 116.801 10.152V12.648C116.801 14.1413 116.454 15.2773 115.761 16.056C115.067 16.8347 114.102 17.224 112.865 17.224C111.627 17.224 110.662 16.8347 109.969 16.056C109.275 15.2773 108.929 14.1413 108.929 12.648V10.152ZM112.865 15.976C113.729 15.976 114.374 15.6827 114.801 15.096C115.238 14.4987 115.457 13.6507 115.457 12.552V10.248C115.457 9.224 115.238 8.39733 114.801 7.768C114.374 7.13867 113.729 6.824 112.865 6.824C112.001 6.824 111.35 7.13867 110.913 7.768C110.486 8.39733 110.273 9.224 110.273 10.248V12.552C110.273 13.6507 110.486 14.4987 110.913 15.096C111.35 15.6827 112.001 15.976 112.865 15.976ZM124.854 16.424H125.046V5.8H126.39V17H123.702L120.47 6.376H120.278V17H118.934V5.8H121.622L124.854 16.424ZM130.059 12.264H134.859V13.416H130.059V12.264ZM138.527 5.8H142.207C143.594 5.8 144.607 6.13067 145.247 6.792C145.887 7.45333 146.207 8.50933 146.207 9.96V12.84C146.207 14.2907 145.887 15.3467 145.247 16.008C144.607 16.6693 143.594 17 142.207 17H138.527V15.736H139.487V7.048H138.527V5.8ZM142.015 15.752C142.506 15.752 142.927 15.704 143.279 15.608C143.642 15.512 143.941 15.352 144.175 15.128C144.41 14.8933 144.581 14.584 144.687 14.2C144.805 13.816 144.863 13.3307 144.863 12.744V10.056C144.863 9.46933 144.805 8.984 144.687 8.6C144.581 8.216 144.41 7.912 144.175 7.688C143.941 7.45333 143.642 7.288 143.279 7.192C142.927 7.096 142.506 7.048 142.015 7.048H140.831V15.752H142.015ZM155.556 17H154.212V13.256C154.212 12.9787 154.148 12.7653 154.02 12.616C153.892 12.4667 153.668 12.392 153.348 12.392H149.86V17H148.516V5.8H152.516C153.092 5.8 153.594 5.88533 154.02 6.056C154.447 6.216 154.799 6.43467 155.076 6.712C155.364 6.98933 155.578 7.31467 155.716 7.688C155.866 8.05067 155.94 8.43467 155.94 8.84V9.32C155.94 9.736 155.823 10.152 155.588 10.568C155.364 10.984 155.012 11.304 154.532 11.528V11.72C154.852 11.7733 155.103 11.9013 155.284 12.104C155.466 12.3067 155.556 12.5947 155.556 12.968V17ZM149.86 11.144H152.356C153.114 11.144 153.674 10.984 154.036 10.664C154.41 10.3333 154.596 9.85333 154.596 9.224V8.936C154.596 8.37067 154.41 7.91733 154.036 7.576C153.674 7.224 153.114 7.048 152.356 7.048H149.86V11.144ZM158.297 5.8H165.401V7.048H162.521V15.752H165.401V17H158.297V15.752H161.177V7.048H158.297V5.8ZM167.182 5.8H168.622L171.55 16.424H171.742L174.67 5.8H176.11L172.942 17H170.35L167.182 5.8ZM177.891 5.8H184.995V7.048H182.115V15.752H184.995V17H177.891V15.752H180.771V7.048H177.891V5.8ZM193.432 16.424H193.624V5.8H194.968V17H192.28L189.048 6.376H188.856V17H187.512V5.8H190.2L193.432 16.424ZM199.965 11.624H204.957V17H203.709V15.656H203.517C203.335 16.1253 203.015 16.504 202.557 16.792C202.098 17.08 201.565 17.224 200.957 17.224C199.751 17.224 198.802 16.8347 198.109 16.056C197.426 15.2773 197.085 14.1413 197.085 12.648V10.152C197.085 8.70133 197.431 7.576 198.125 6.776C198.818 5.976 199.783 5.576 201.021 5.576C201.661 5.576 202.226 5.68267 202.717 5.896C203.207 6.09867 203.618 6.38667 203.949 6.76C204.279 7.12267 204.53 7.55467 204.701 8.056C204.871 8.54667 204.957 9.07467 204.957 9.64V9.832H203.613V9.64C203.613 9.27733 203.559 8.92533 203.453 8.584C203.357 8.24267 203.202 7.944 202.989 7.688C202.786 7.42133 202.519 7.21333 202.189 7.064C201.869 6.904 201.479 6.824 201.021 6.824C200.157 6.824 199.506 7.13867 199.069 7.768C198.642 8.39733 198.429 9.224 198.429 10.248V12.552C198.429 13.6507 198.642 14.4987 199.069 15.096C199.506 15.6827 200.167 15.976 201.053 15.976C201.853 15.976 202.477 15.72 202.925 15.208C203.383 14.696 203.613 13.9813 203.613 13.064V12.872H199.965V11.624Z" fill="#C4EC94"></path></svg>

<svg xmlns="http://www.w3.org/2000/svg" width="216" height="23" fill="none"><rect width="216" height="23" fill="#032538" rx="5"/><path fill="#C4EC94" d="M11.552 14.92v-1.344l6.208-2.08v-.192l-6.208-2.08V7.88l6.688 2.304v2.432l-6.688 2.304Zm23.002 1.056c.458 0 .848-.075 1.168-.224.33-.16.597-.368.8-.624.213-.267.368-.565.464-.896.106-.341.16-.699.16-1.072v-.192h1.344v.192c0 .565-.086 1.099-.256 1.6-.17.49-.422.923-.752 1.296-.33.363-.742.65-1.232.864-.49.203-1.056.304-1.696.304-1.238 0-2.203-.39-2.896-1.168-.694-.779-1.04-1.915-1.04-3.408v-2.496c0-1.45.346-2.576 1.04-3.376.693-.8 1.658-1.2 2.896-1.2.64 0 1.205.107 1.696.32.49.203.901.49 1.232.864.33.363.581.795.752 1.296.17.49.256 1.019.256 1.584v.192h-1.344V9.64a3.913 3.913 0 0 0-.176-1.056 2.393 2.393 0 0 0-.464-.896 2.06 2.06 0 0 0-.784-.624c-.32-.16-.71-.24-1.168-.24-.864 0-1.515.315-1.952.944-.427.63-.64 1.456-.64 2.48v2.304c0 1.099.213 1.947.64 2.544.437.587 1.088.88 1.952.88Zm5.797-5.824c0-1.45.346-2.576 1.04-3.376.693-.8 1.658-1.2 2.896-1.2 1.237 0 2.202.4 2.896 1.2.693.8 1.04 1.925 1.04 3.376v2.496c0 1.493-.347 2.63-1.04 3.408-.694.779-1.659 1.168-2.896 1.168-1.238 0-2.203-.39-2.896-1.168-.694-.779-1.04-1.915-1.04-3.408v-2.496Zm3.936 5.824c.864 0 1.509-.293 1.936-.88.437-.597.656-1.445.656-2.544v-2.304c0-1.024-.219-1.85-.656-2.48-.427-.63-1.072-.944-1.936-.944-.864 0-1.515.315-1.952.944-.427.63-.64 1.456-.64 2.48v2.304c0 1.099.213 1.947.64 2.544.437.587 1.088.88 1.952.88Zm11.989.448h.191V5.8h1.345V17h-2.688L51.89 6.376H51.7V17h-1.345V5.8h2.689l3.232 10.624ZM59.416 5.8h1.44l2.928 10.624h.192L66.904 5.8h1.44L65.176 17h-2.592L59.416 5.8Zm10.87 0h6.783v1.248h-5.44v3.712h5.344v1.248H71.63v3.744h5.536V17h-6.88V5.8ZM86.977 17h-1.344v-3.744c0-.277-.064-.49-.192-.64-.128-.15-.352-.224-.672-.224h-3.488V17h-1.344V5.8h4c.576 0 1.078.085 1.504.256.427.16.779.379 1.056.656.288.277.501.603.64.976.15.363.224.747.224 1.152v.48c0 .416-.117.832-.352 1.248-.224.416-.576.736-1.056.96v.192c.32.053.57.181.752.384.181.203.272.49.272.864V17Zm-5.696-5.856h2.496c.757 0 1.317-.16 1.68-.48.374-.33.56-.81.56-1.44v-.288c0-.565-.186-1.019-.56-1.36-.362-.352-.922-.528-1.68-.528h-2.496v4.096Zm14.629-2.112c0-.363-.075-.683-.224-.96a1.899 1.899 0 0 0-.576-.688 2.735 2.735 0 0 0-.848-.416 3.49 3.49 0 0 0-1.008-.144c-.31 0-.603.043-.88.128a2.531 2.531 0 0 0-.752.336c-.213.15-.384.336-.512.56a1.434 1.434 0 0 0-.192.752v.096c0 .31.064.576.192.8.128.213.315.4.56.56.256.15.57.277.944.384.373.096.81.181 1.312.256 1.173.181 2.037.528 2.592 1.04.555.501.832 1.179.832 2.032v.192c0 .48-.085.923-.256 1.328-.16.395-.405.736-.736 1.024a3.35 3.35 0 0 1-1.2.672c-.48.16-1.035.24-1.664.24-.715 0-1.35-.101-1.904-.304a4.087 4.087 0 0 1-1.376-.864 3.857 3.857 0 0 1-.832-1.296 4.525 4.525 0 0 1-.288-1.632v-.48h1.344v.384c0 .981.267 1.717.8 2.208.544.49 1.296.736 2.256.736.832 0 1.456-.181 1.872-.544.427-.373.64-.864.64-1.472v-.096c0-.587-.219-1.035-.656-1.344-.427-.31-1.125-.533-2.096-.672a8.618 8.618 0 0 1-1.536-.336 4.202 4.202 0 0 1-1.152-.608 2.627 2.627 0 0 1-.736-.912c-.17-.352-.256-.768-.256-1.248v-.192c0-.437.09-.837.272-1.2.181-.363.432-.677.752-.944.33-.267.72-.47 1.168-.608.459-.15.96-.224 1.504-.224.63 0 1.19.09 1.68.272.501.181.923.427 1.264.736.341.299.597.656.768 1.072a3.1 3.1 0 0 1 .272 1.28v.672h-1.344v-.576ZM99.516 5.8h7.104v1.248h-2.88v8.704h2.88V17h-7.104v-1.248h2.88V7.048h-2.88V5.8Zm9.413 4.352c0-1.45.346-2.576 1.04-3.376.693-.8 1.658-1.2 2.896-1.2 1.237 0 2.202.4 2.896 1.2.693.8 1.04 1.925 1.04 3.376v2.496c0 1.493-.347 2.63-1.04 3.408-.694.779-1.659 1.168-2.896 1.168-1.238 0-2.203-.39-2.896-1.168-.694-.779-1.04-1.915-1.04-3.408v-2.496Zm3.936 5.824c.864 0 1.509-.293 1.936-.88.437-.597.656-1.445.656-2.544v-2.304c0-1.024-.219-1.85-.656-2.48-.427-.63-1.072-.944-1.936-.944-.864 0-1.515.315-1.952.944-.427.63-.64 1.456-.64 2.48v2.304c0 1.099.213 1.947.64 2.544.437.587 1.088.88 1.952.88Zm11.989.448h.192V5.8h1.344V17h-2.688L120.47 6.376h-.192V17h-1.344V5.8h2.688l3.232 10.624Zm5.205-4.16h4.8v1.152h-4.8v-1.152Zm8.468-6.464h3.68c1.387 0 2.4.33 3.04.992.64.661.96 1.717.96 3.168v2.88c0 1.45-.32 2.507-.96 3.168-.64.661-1.653.992-3.04.992h-3.68v-1.264h.96V7.048h-.96V5.8Zm3.488 9.952c.491 0 .912-.048 1.264-.144.363-.096.662-.256.896-.48.235-.235.406-.544.512-.928.118-.384.176-.87.176-1.456v-2.688c0-.587-.058-1.072-.176-1.456-.106-.384-.277-.688-.512-.912a1.935 1.935 0 0 0-.896-.496 4.849 4.849 0 0 0-1.264-.144h-1.184v8.704h1.184ZM155.556 17h-1.344v-3.744c0-.277-.064-.49-.192-.64-.128-.15-.352-.224-.672-.224h-3.488V17h-1.344V5.8h4c.576 0 1.078.085 1.504.256.427.16.779.379 1.056.656.288.277.502.603.64.976.15.363.224.747.224 1.152v.48c0 .416-.117.832-.352 1.248-.224.416-.576.736-1.056.96v.192c.32.053.571.181.752.384.182.203.272.49.272.864V17Zm-5.696-5.856h2.496c.758 0 1.318-.16 1.68-.48.374-.33.56-.81.56-1.44v-.288c0-.565-.186-1.019-.56-1.36-.362-.352-.922-.528-1.68-.528h-2.496v4.096Zm8.437-5.344h7.104v1.248h-2.88v8.704h2.88V17h-7.104v-1.248h2.88V7.048h-2.88V5.8Zm8.885 0h1.44l2.928 10.624h.192L174.67 5.8h1.44L172.942 17h-2.592l-3.168-11.2Zm10.709 0h7.104v1.248h-2.88v8.704h2.88V17h-7.104v-1.248h2.88V7.048h-2.88V5.8Zm15.541 10.624h.192V5.8h1.344V17h-2.688l-3.232-10.624h-.192V17h-1.344V5.8h2.688l3.232 10.624Zm6.533-4.8h4.992V17h-1.248v-1.344h-.192a2.31 2.31 0 0 1-.96 1.136c-.459.288-.992.432-1.6.432-1.206 0-2.155-.39-2.848-1.168-.683-.779-1.024-1.915-1.024-3.408v-2.496c0-1.45.346-2.576 1.04-3.376.693-.8 1.658-1.2 2.896-1.2.64 0 1.205.107 1.696.32.49.203.901.49 1.232.864.33.363.581.795.752 1.296.17.49.256 1.019.256 1.584v.192h-1.344V9.64c0-.363-.054-.715-.16-1.056a2.397 2.397 0 0 0-.464-.896 2.042 2.042 0 0 0-.8-.624c-.32-.16-.71-.24-1.168-.24-.864 0-1.515.315-1.952.944-.427.63-.64 1.456-.64 2.48v2.304c0 1.099.213 1.947.64 2.544.437.587 1.098.88 1.984.88.8 0 1.424-.256 1.872-.768.458-.512.688-1.227.688-2.144v-.192h-3.648v-1.248Z"/></svg>
